src/assets/icons/svg/users.svg

<svg width="34" height="34" viewBox="0 0 34 34" fill="none" xmlns="http://www.w3.org/2000/svg">
<path d="M17 7.96875C19.1971 7.96875 20.9844 6.18149 20.9844 3.98438C20.9844 1.78726 19.1971 0 17 0C14.8029 0 13.0156 1.78726 13.0156 3.98438C13.0156 6.18149 14.8029 7.96875 17 7.96875ZM17 2.65625C17.7323 2.65625 18.3281 3.25209 18.3281 3.98438C18.3281 4.71666 17.7323 5.3125 17 5.3125C16.2677 5.3125 15.6719 4.71666 15.6719 3.98438C15.6719 3.25209 16.2677 2.65625 17 2.65625ZM24.3047 21.1234C24.3047 22.7467 23.4398 24.2741 22.0479 25.1093L21.9519 25.1669C21.3551 25.5252 20.9844 26.1796 20.9844 26.8753V32.6719C20.9844 33.4055 20.3898 34 19.6562 34C18.9227 34 18.3281 33.4055 18.3281 32.6719V26.8753C18.3281 25.252 19.193 23.7247 20.5849 22.8894L20.6809 22.8318C21.2778 22.4738 21.6484 21.8191 21.6484 21.1234V15.207C21.6484 12.4628 19.1024 11.8867 16.9668 11.8867C14.8312 11.8867 12.2852 12.4628 12.2852 15.207V21.1042C12.2852 21.8072 12.6615 22.465 13.2672 22.8214L13.3801 22.8878C14.7938 23.7195 15.6719 25.2546 15.6719 26.8945V32.6719C15.6719 33.4055 15.0773 34 14.3438 34C13.6102 34 13.0156 33.4055 13.0156 32.6719V26.8945C13.0156 26.1916 12.6392 25.5337 12.0335 25.1776L11.9207 25.1112C10.507 24.2795 9.62891 22.7441 9.62891 21.1042V15.207C9.62891 13.2063 10.4367 11.5936 11.9651 10.5435C13.2154 9.68442 14.945 9.23047 16.9668 9.23047C18.9886 9.23047 20.7182 9.68442 21.9685 10.5435C23.4969 11.5936 24.3047 13.2063 24.3047 15.207V21.1234ZM6.64062 10.625C8.83774 10.625 10.625 8.83774 10.625 6.64062C10.625 4.44351 8.83774 2.65625 6.64062 2.65625C4.44351 2.65625 2.65625 4.44351 2.65625 6.64062C2.65625 8.83774 4.44351 10.625 6.64062 10.625ZM6.64062 5.3125C7.37291 5.3125 7.96875 5.90834 7.96875 6.64062C7.96875 7.37291 7.37291 7.96875 6.64062 7.96875C5.90834 7.96875 5.3125 7.37291 5.3125 6.64062C5.3125 5.90834 5.90834 5.3125 6.64062 5.3125ZM10.625 28.0234V32.6719C10.625 33.4055 10.0305 34 9.29688 34C8.56329 34 7.96875 33.4055 7.96875 32.6719V28.0234C7.96875 27.2899 8.56329 26.6953 9.29688 26.6953C10.0305 26.6953 10.625 27.2899 10.625 28.0234ZM7.83594 13.248C7.83594 13.9816 7.24139 14.5762 6.50781 14.5762C2.65625 14.5762 2.65625 16.3852 2.65625 17.0664V22.7109C2.65625 23.3348 2.95404 23.9304 3.45312 24.3047C4.61731 25.1778 5.3125 26.5682 5.3125 28.0234V32.6719C5.3125 33.4055 4.71796 34 3.98438 34C3.25079 34 2.65625 33.4055 2.65625 32.6719V28.0234C2.65625 27.3996 2.35846 26.804 1.85938 26.4297C0.69519 25.5565 0 24.1662 0 22.7109V17.0664C0 15.2711 0.737213 13.8524 2.13174 12.9643C3.21967 12.2711 4.69202 11.9199 6.50781 11.9199C7.24139 11.9199 7.83594 12.5145 7.83594 13.248ZM27.3594 10.625C29.5565 10.625 31.3438 8.83774 31.3438 6.64062C31.3438 4.44351 29.5565 2.65625 27.3594 2.65625C25.1623 2.65625 23.375 4.44351 23.375 6.64062C23.375 8.83774 25.1623 10.625 27.3594 10.625ZM27.3594 5.3125C28.0917 5.3125 28.6875 5.90834 28.6875 6.64062C28.6875 7.37291 28.0917 7.96875 27.3594 7.96875C26.6271 7.96875 26.0312 7.37291 26.0312 6.64062C26.0312 5.90834 26.6271 5.3125 27.3594 5.3125ZM26.0312 28.0234V32.6719C26.0312 33.4055 25.4367 34 24.7031 34C23.9695 34 23.375 33.4055 23.375 32.6719V28.0234C23.375 27.2899 23.9695 26.6953 24.7031 26.6953C25.4367 26.6953 26.0312 27.2899 26.0312 28.0234ZM34 17.0664V22.7109C34 24.1662 33.3048 25.5565 32.1406 26.4297C31.6415 26.804 31.3438 27.3996 31.3438 28.0234V32.6719C31.3438 33.4055 30.7492 34 30.0156 34C29.282 34 28.6875 33.4055 28.6875 32.6719V28.0234C28.6875 26.5682 29.3827 25.1778 30.5469 24.3047C31.046 23.9304 31.3438 23.3348 31.3438 22.7109V17.0664C31.3438 16.3852 31.3438 14.5762 27.4922 14.5762C26.7586 14.5762 26.1641 13.9816 26.1641 13.248C26.1641 12.5145 26.7586 11.9199 27.4922 11.9199C29.308 11.9199 30.7803 12.2711 31.8683 12.9643C33.2628 13.8524 34 15.2711 34 17.0664Z" fill="black"/>
</svg>

<?xml version="1.0" encoding="iso-8859-1"?>
<!-- Generator: Adobe Illustrator 23.1.0, SVG Export Plug-In . SVG Version: 6.00 Build 0)  -->
<svg version="1.1" id="&#x421;&#x43B;&#x43E;&#x439;_1"
	 xmlns="http://www.w3.org/2000/svg" xmlns:xlink="http://www.w3.org/1999/xlink" x="0px" y="0px" viewBox="0 0 34 34"
	 style="enable-background:new 0 0 34 34;" xml:space="preserve">
<path d="M17,7.969c2.197,0,3.984-1.787,3.984-3.984C20.984,1.787,19.197,0,17,0s-3.984,1.787-3.984,3.984
	C13.016,6.181,14.803,7.969,17,7.969z M17,2.656c0.732,0,1.328,0.596,1.328,1.328c0,0.732-0.596,1.328-1.328,1.328
	s-1.328-0.596-1.328-1.328C15.672,3.252,16.268,2.656,17,2.656z M24.305,21.123c0,1.623-0.865,3.151-2.257,3.986l-0.096,0.058
	c-0.597,0.358-0.968,1.013-0.968,1.708v5.797c0,0.734-0.595,1.328-1.328,1.328c-0.733,0-1.328-0.595-1.328-1.328v-5.797
	c0-1.623,0.865-3.151,2.257-3.986l0.096-0.058c0.597-0.358,0.967-1.013,0.967-1.708v-5.916c0-2.744-2.546-3.32-4.682-3.32
	s-4.682,0.576-4.682,3.32v5.897c0,0.703,0.376,1.361,0.982,1.717l0.113,0.066c1.414,0.832,2.292,2.367,2.292,4.007v5.777
	c0,0.734-0.595,1.328-1.328,1.328c-0.734,0-1.328-0.595-1.328-1.328v-5.777c0-0.703-0.376-1.361-0.982-1.717l-0.113-0.066
	c-1.414-0.832-2.292-2.367-2.292-4.007v-5.897c0-2.001,0.808-3.613,2.336-4.663c1.25-0.859,2.98-1.313,5.002-1.313
	s3.751,0.454,5.002,1.313c1.528,1.05,2.336,2.663,2.336,4.663V21.123z M6.641,10.625c2.197,0,3.984-1.787,3.984-3.984
	c0-2.197-1.787-3.984-3.984-3.984c-2.197,0-3.984,1.787-3.984,3.984C2.656,8.838,4.444,10.625,6.641,10.625z M6.641,5.313
	c0.732,0,1.328,0.596,1.328,1.328c0,0.732-0.596,1.328-1.328,1.328c-0.732,0-1.328-0.596-1.328-1.328
	C5.313,5.908,5.908,5.313,6.641,5.313z M10.625,28.023v4.649c0,0.734-0.594,1.328-1.328,1.328c-0.734,0-1.328-0.595-1.328-1.328
	v-4.649c0-0.733,0.595-1.328,1.328-1.328C10.031,26.695,10.625,27.29,10.625,28.023z M7.836,13.248c0,0.734-0.595,1.328-1.328,1.328
	c-3.852,0-3.852,1.809-3.852,2.49v5.644c0,0.624,0.298,1.22,0.797,1.594c1.164,0.873,1.859,2.263,1.859,3.719v4.649
	C5.313,33.405,4.718,34,3.984,34c-0.734,0-1.328-0.595-1.328-1.328v-4.649c0-0.624-0.298-1.219-0.797-1.594
	C0.695,25.556,0,24.166,0,22.711v-5.644c0-1.795,0.737-3.214,2.132-4.102c1.088-0.693,2.56-1.044,4.376-1.044
	C7.241,11.92,7.836,12.514,7.836,13.248z M27.359,10.625c2.197,0,3.984-1.787,3.984-3.984c0-2.197-1.787-3.984-3.984-3.984
	s-3.984,1.787-3.984,3.984C23.375,8.838,25.162,10.625,27.359,10.625z M27.359,5.313c0.732,0,1.328,0.596,1.328,1.328
	c0,0.732-0.596,1.328-1.328,1.328s-1.328-0.596-1.328-1.328C26.031,5.908,26.627,5.313,27.359,5.313z M26.031,28.023v4.649
	c0,0.734-0.594,1.328-1.328,1.328s-1.328-0.595-1.328-1.328v-4.649c0-0.733,0.594-1.328,1.328-1.328S26.031,27.29,26.031,28.023z
	 M34,17.066v5.644c0,1.455-0.695,2.846-1.859,3.719c-0.499,0.374-0.797,0.97-0.797,1.594v4.649c0,0.734-0.595,1.328-1.328,1.328
	s-1.328-0.595-1.328-1.328v-4.649c0-1.455,0.695-2.846,1.859-3.719c0.499-0.374,0.797-0.97,0.797-1.594v-5.644
	c0-0.681,0-2.49-3.852-2.49c-0.734,0-1.328-0.595-1.328-1.328c0-0.734,0.594-1.328,1.328-1.328c1.816,0,3.288,0.351,4.376,1.044
	C33.263,13.852,34,15.271,34,17.066z"/>
</svg>
